src/Pure/16/symbolic/actions/selection-top-symbolic.svg

<?xml version="1.0" encoding="UTF-8" standalone="no"?>
<svg
   width="16"
   height="16"
   version="1.1"
   id="svg2"
   sodipodi:docname="selection-top-symbolic.svg"
   inkscape:version="1.4.2 (ebf0e940d0, 2025-05-08)"
   xmlns:inkscape="http://www.inkscape.org/namespaces/inkscape"
   xmlns:sodipodi="http://sodipodi.sourceforge.net/DTD/sodipodi-0.dtd"
   xmlns="http://www.w3.org/2000/svg"
   xmlns:svg="http://www.w3.org/2000/svg">
  <defs
     id="defs2">
    <style
       id="current-color-scheme"
       type="text/css">
        .ColorScheme-Text { color:#363636; }
        .ColorScheme-NegativeText { color:#da4453; }
     </style>
  </defs>
  <sodipodi:namedview
     id="namedview2"
     pagecolor="#ffffff"
     bordercolor="#000000"
     borderopacity="0.25"
     inkscape:showpageshadow="2"
     inkscape:pageopacity="0.0"
     inkscape:pagecheckerboard="0"
     inkscape:deskcolor="#d1d1d1"
     inkscape:zoom="49.6875"
     inkscape:cx="8"
     inkscape:cy="8"
     inkscape:window-width="1920"
     inkscape:window-height="1010"
     inkscape:window-x="0"
     inkscape:window-y="0"
     inkscape:window-maximized="1"
     inkscape:current-layer="svg2" />
  <path
     id="path1"
     class="ColorScheme-Text"
     d="m 7,13 v -1 h 7 v 1 z m 2,-2 v -1 h 5 v 1 z M 8,9 V 8 h 6 V 9 Z M 9,7 V 6 h 5 V 7 Z M 7,5 V 4 h 7 v 1 z"
     style="opacity:0.35;fill:currentColor" />
  <path
     id="path2"
     class="ColorScheme-Text"
     style="fill:currentColor"
     d="M 4,14 V 5.970703 L 2.65625,7.4082031 2,6.7207031 4.3125,4.220703 l 0.1894531,-0.21875 0.1875,0.21875 2.3125,2.5000001 -0.65625,0.6875 -1.34375,-1.4375001 V 14 Z M 2,3 V 2 h 12 v 1 z" />
</svg>

<svg width="16" height="16" version="1.1" xmlns="http://www.w3.org/2000/svg">
 <path class="ColorScheme-Text" d="m7 13v-1h7v1zm2-2v-1h5v1zm-1-2v-1h6v1zm1-2v-1h5v1zm-2-2v-1h7v1z" color="#363636" fill="#363636" opacity=".35"/>
 <path class="ColorScheme-Text" d="m4 14v-8.0293l-1.3438 1.4375-0.65625-0.6875 2.3125-2.5 0.18945-0.21875 0.1875 0.21875 2.3125 2.5-0.65625 0.6875-1.3438-1.4375v8.0293zm-2-11v-1h12v1z" color="#363636" fill="#363636"/>
</svg>
